symbols/web/category/materialsymbolsoutlined/category_wght700grad200_48px.svg

<svg xmlns="http://www.w3.org/2000/svg" height="48" width="48"><path d="M11 22.9 24.05 1.85l13 21.05Zm25.3 23.15q-4.05 0-6.925-2.85t-2.875-7q0-4.05 2.85-6.95 2.85-2.9 6.95-2.9t6.95 2.9q2.85 2.9 2.85 7t-2.85 6.95q-2.85 2.85-6.95 2.85ZM3.25 44.8V27.3H20.7v17.5Zm33.05-3.35q2.25 0 3.725-1.5t1.475-3.7q0-2.25-1.475-3.775T36.3 30.95q-2.25 0-3.75 1.525t-1.5 3.775q0 2.2 1.525 3.7t3.725 1.5ZM7.85 40.2h8.3v-8.3h-8.3ZM19.2 18.3h9.6l-4.75-7.8Zm4.85 0Zm-7.9 13.6Zm20.15 4.35Z"/></svg>

<svg xmlns="http://www.w3.org/2000/svg" height="48" width="48"><path d="M11 22.9 24.05 1.85 37.05 22.9ZM36.3 46.05Q32.25 46.05 29.375 43.2Q26.5 40.35 26.5 36.2Q26.5 32.15 29.35 29.25Q32.2 26.35 36.3 26.35Q40.4 26.35 43.25 29.25Q46.1 32.15 46.1 36.25Q46.1 40.35 43.25 43.2Q40.4 46.05 36.3 46.05ZM3.25 44.8V27.3H20.7V44.8ZM36.3 41.45Q38.55 41.45 40.025 39.95Q41.5 38.45 41.5 36.25Q41.5 34 40.025 32.475Q38.55 30.95 36.3 30.95Q34.05 30.95 32.55 32.475Q31.05 34 31.05 36.25Q31.05 38.45 32.575 39.95Q34.1 41.45 36.3 41.45ZM7.85 40.2H16.15V31.9H7.85ZM19.2 18.3H28.8L24.05 10.5ZM24.05 18.3ZM16.15 31.9ZM36.3 36.25Q36.3 36.25 36.3 36.25Q36.3 36.25 36.3 36.25Q36.3 36.25 36.3 36.25Q36.3 36.25 36.3 36.25Q36.3 36.25 36.3 36.25Q36.3 36.25 36.3 36.25Q36.3 36.25 36.3 36.25Q36.3 36.25 36.3 36.25Z"/></svg>
